;FLAVOR:RepRap
;TIME:10449
;Filament used: 7.30773m, 0m
;Layer height: 0.2
;MINX:-37.6
;MINY:-40.8
;MINZ:0.3
;MAXX:37.6
;MAXY:40.4
;MAXZ:21.9
;TARGET_MACHINE.NAME:IDEX420
;Generated with Cura_SteamEngine 5.10.2
T0
M190 S60
M104 S205
M109 S205
G90 ; switch to absolute coordinate mode
G1 F18000 Y-160 Z15 ; move fast to the coordinates
G1 F18000 X0 Z0.3 ; move fast to the coordinates
G92 E0 ; set the extruder to 0
G1 F300 X60 E24 ; purge the hotend
G1 F600 X40 ; swipe the nozzle
G1 F600 Z3 ; perform Z hop
M82 ;absolute extrusion mode
M141 S0
M83 ;relative extrusion mode
G1 F1500 E-1.4
;LAYER_COUNT:109
;LAYER:0
M106 S51 P6
G0 F6000 X-37.6 Y-29.575 Z0.3
;TYPE:SKIRT
G1 F1500 E1.4
G1 F2400 X-37.584 Y-30.589 E0.04807
G1 X-37.511 Y-31.537 E0.04506
G1 X-37.357 Y-32.41 E0.04202
G1 X-37.115 Y-33.329 E0.04504
G1 X-36.909 Y-33.928 E0.03002
G1 X-36.599 Y-34.683 E0.03868
G1 X-36.146 Y-35.551 E0.04641
G1 X-35.51 Y-36.513 E0.05466
G1 X-34.804 Y-37.369 E0.05259
G1 X-34.056 Y-38.105 E0.04974
G1 X-33.309 Y-38.702 E0.04532
G1 X-32.849 Y-39.025 E0.02664
G1 X-32.173 Y-39.45 E0.03785
G1 X-31.193 Y-39.932 E0.05176
G1 X-30.235 Y-40.283 E0.04836
G1 X-29.321 Y-40.531 E0.04489
G1 X-28.754 Y-40.642 E0.02738
G1 X-27.901 Y-40.757 E0.04079
G1 X-26.921 Y-40.794 E0.04648
G1 X26.346 Y-40.8 E2.52463
G1 X27.388 Y-40.784 E0.04939
G1 X28.337 Y-40.711 E0.04511
G1 X29.21 Y-40.557 E0.04202
G1 X30.121 Y-40.317 E0.04465
G1 X30.73 Y-40.108 E0.03052
G1 X31.534 Y-39.777 E0.04121
G1 X32.371 Y-39.327 E0.04504
G1 X33.277 Y-38.74 E0.05117
G1 X34.249 Y-37.929 E0.06
G1 X34.914 Y-37.245 E0.04521
G1 X35.644 Y-36.329 E0.05551
G1 X36.272 Y-35.332 E0.05585
G1 X36.757 Y-34.337 E0.05246
G1 X37.093 Y-33.402 E0.04709
G1 X37.386 Y-32.311 E0.05354
G1 X37.552 Y-31.176 E0.05437
G1 X37.596 Y-30.055 E0.05317
G1 X37.6 Y35.614 E3.11243
G1 X37.588 Y36.381 E0.03636
G1 X37.526 Y36.971 E0.02812
G1 X37.366 Y37.599 E0.03072
G1 X37.126 Y38.174 E0.02953
G1 X36.781 Y38.728 E0.03093
G1 X36.397 Y39.176 E0.02797
G1 X35.92 Y39.583 E0.02972
G1 X35.429 Y39.888 E0.0274
G1 X34.917 Y40.135 E0.02694
G1 X34.364 Y40.299 E0.02734
G1 X33.686 Y40.379 E0.03236
G1 X32.606 Y40.4 E0.0512
G1 X-32.933 Y40.4 E3.10627
G1 X-33.68 Y40.387 E0.03541
G1 X-34.453 Y40.285 E0.03695
G1 X-35.117 Y40.046 E0.03345
G1 X-35.857 Y39.632 E0.04019
G1 X-36.3 Y39.276 E0.02694
G1 X-36.684 Y38.851 E0.02715
G1 X-37.088 Y38.225 E0.03531
G1 X-37.335 Y37.713 E0.02694
G1 X-37.499 Y37.16 E0.02734
G1 X-37.579 Y36.48 E0.03245
G1 X-37.6 Y35.391 E0.05162
G1 X-37.6 Y-29.575 E3.07911
G0 F6000 X-37.2 Y-29.569
G1 F2400 X-37.185 Y-30.559 E0.04693
G1 X-37.117 Y-31.468 E0.0432
G1 X-36.97 Y-32.308 E0.04042
G1 X-36.728 Y-33.227 E0.04504
G1 X-36.539 Y-33.777 E0.02756
G1 X-36.244 Y-34.498 E0.03692
G1 X-35.791 Y-35.366 E0.04641
G1 X-35.201 Y-36.259 E0.05073
G1 X-34.523 Y-37.084 E0.05061
G1 X-33.775 Y-37.82 E0.04974
G1 X-33.079 Y-38.375 E0.04219
G1 X-32.636 Y-38.686 E0.02565
G1 X-31.96 Y-39.111 E0.03785
G1 X-31.055 Y-39.556 E0.0478
G1 X-30.097 Y-39.907 E0.04836
G1 X-29.244 Y-40.138 E0.04188
G1 X-28.677 Y-40.249 E0.02738
G1 X-27.886 Y-40.357 E0.03784
G1 X-26.921 Y-40.394 E0.04577
G1 X26.34 Y-40.4 E2.52434
G1 X27.358 Y-40.385 E0.04825
G1 X28.268 Y-40.317 E0.04325
G1 X29.108 Y-40.17 E0.04042
G1 X30.019 Y-39.93 E0.04465
G1 X30.579 Y-39.738 E0.02806
G1 X31.345 Y-39.425 E0.03922
G1 X32.153 Y-38.991 E0.04347
G1 X33.059 Y-38.404 E0.05117
G1 X33.962 Y-37.65 E0.05576
G1 X34.627 Y-36.966 E0.04521
G1 X35.306 Y-36.115 E0.0516
G1 X35.913 Y-35.156 E0.05379
G1 X36.381 Y-34.201 E0.05041
G1 X36.707 Y-33.297 E0.04555
G1 X36.99 Y-32.252 E0.05131
G1 X37.152 Y-31.16 E0.05232
G1 X37.196 Y-30.055 E0.05241
G1 X37.2 Y35.609 E3.11219
G1 X37.19 Y36.339 E0.0346
G1 X37.128 Y36.929 E0.02812
G1 X36.979 Y37.498 E0.02788
G1 X36.785 Y37.965 E0.02397
G1 X36.477 Y38.468 E0.02795
G1 X36.093 Y38.916 E0.02797
G1 X35.708 Y39.244 E0.02397
G1 X35.252 Y39.529 E0.02549
G1 X34.799 Y39.753 E0.02395
G1 X34.316 Y39.902 E0.02396
G1 X33.678 Y39.979 E0.03046
G1 X32.598 Y40 E0.0512
G1 X-32.927 Y40 E3.1056
G1 X-33.628 Y39.99 E0.03323
G1 X-34.362 Y39.893 E0.03509
G1 X-34.924 Y39.696 E0.02823
G1 X-35.609 Y39.318 E0.03708
G1 X-36.006 Y39.005 E0.02396
G1 X-36.349 Y38.633 E0.02398
G1 X-36.729 Y38.048 E0.03306
G1 X-36.953 Y37.595 E0.02395
G1 X-37.102 Y37.112 E0.02396
G1 X-37.179 Y36.472 E0.03055
G1 X-37.2 Y35.383 E0.05162
G1 X-37.2 Y-29.569 E3.07845
G1 F1500 E-1.4
;MESH:Makita+Battery+Cover+18V+3AMP.stl
G0 F6000 X-33.452 Y-29.569
G0 X-24.345 Y-16.881
G0 X-23.706 Y-16.345
G0 X-21.329 Y-15.32
;TYPE:WALL-INNER
G1 F1500 E1.4
G1 F1200 X-21.878 Y-15.185 E0.02345
G1 X-22.488 Y-15.155 E0.02533
G1 X-23.126 Y-15.242 E0.0267
G1 X-23.753 Y-15.453 E0.02744
G1 X-24.348 Y-15.798 E0.02852
G1 X-24.557 Y-15.964 E0.01107
G1 X-25.032 Y-16.465 E0.02863
G1 X-25.379 Y-17.014 E0.02693
G1 X-25.617 Y-17.637 E0.02766
G1 X-25.711 Y-18.104 E0.01976
G1 X-25.733 Y-18.908 E0.03336
G1 X-25.541 Y-19.659 E0.03215
G1 X-25.243 Y-20.287 E0.02883
G1 X-24.839 Y-20.821 E0.02777
G1 X-24.41 Y-21.215 E0.02416
G1 X-23.818 Y-21.573 E0.02869
G1 X-23.215 Y-21.801 E0.02674
G1 X-22.545 Y-21.902 E0.0281
G1 X-21.833 Y-21.866 E0.02957
G1 X-21.174 Y-21.686 E0.02833
G1 X-20.608 Y-21.416 E0.02601
G1 X-20.023 Y-20.957 E0.03084
G1 X-19.576 Y-20.434 E0.02853
G1 X-19.248 Y-19.835 E0.02832
G1 X-19.056 Y-19.196 E0.02767
G1 X-18.985 Y-18.548 E0.02703
G1 X-19.067 Y-17.795 E0.03141
G1 X-19.26 Y-17.204 E0.02578
G1 X-19.533 Y-16.7 E0.02377
G1 X-19.971 Y-16.152 E0.02909
G1 X-20.166 Y-15.97 E0.01106
G1 X-20.692 Y-15.603 E0.0266
G1 X-21.329 Y-15.32 E0.02891
G0 F6000 X-21.888 Y-15.542
G1 F1200 X-22.488 Y-15.505 E0.02493
G1 X-23.159 Y-15.601 E0.02811
G1 X-23.786 Y-15.858 E0.0281
G1 X-24.311 Y-16.213 E0.02628
G1 X-24.743 Y-16.662 E0.02584
G1 X-25.057 Y-17.152 E0.02414
G1 X-25.274 Y-17.706 E0.02467
G1 X-25.366 Y-18.164 E0.01937
G1 X-25.381 Y-18.87 E0.02929
G1 X-25.22 Y-19.52 E0.02777
G1 X-25.04 Y-19.936 E0.0188
G1 X-24.672 Y-20.498 E0.02786
G1 X-24.199 Y-20.935 E0.02671
G1 X-23.666 Y-21.258 E0.02585
G1 X-23.109 Y-21.468 E0.02469
G1 X-22.492 Y-21.551 E0.02582
G1 X-21.86 Y-21.512 E0.02626
G1 X-21.298 Y-21.359 E0.02416
G1 X-20.765 Y-21.097 E0.02463
G1 X-20.267 Y-20.705 E0.02628
G1 X-19.882 Y-20.255 E0.02456
G1 X-19.572 Y-19.702 E0.02629
G1 X-19.394 Y-19.098 E0.02611
G1 X-19.336 Y-18.515 E0.0243
G1 X-19.406 Y-17.905 E0.02546
G1 X-19.582 Y-17.341 E0.0245
G1 X-19.839 Y-16.87 E0.02225
G1 X-20.236 Y-16.381 E0.02612
G1 X-20.708 Y-16.002 E0.0251
G1 X-21.247 Y-15.722 E0.02519
G1 X-21.888 Y-15.542 E0.02761
G0 F6000 X-21.502 Y-15.999
G1 F1200 X-21.949 Y-15.886 E0.01912
G1 X-22.488 Y-15.855 E0.02239
G1 X-23.013 Y-15.933 E0.02201
G1 X-23.506 Y-16.108 E0.0217
G1 X-24.024 Y-16.42 E0.02508
G1 X-24.454 Y-16.86 E0.02551
G1 X-24.735 Y-17.289 E0.02127
G1 X-24.931 Y-17.776 E0.02177
G1 X-25.022 Y-18.225 E0.019
G1 X-25.03 Y-18.826 E0.02493
G1 X-24.93 Y-19.284 E0.01944
G1 X-24.718 Y-19.797 E0.02302
G1 X-24.404 Y-20.27 E0.02354
G1 X-23.989 Y-20.656 E0.0235
G1 X-23.515 Y-20.942 E0.02296
G1 X-22.991 Y-21.13 E0.02309
G1 X-22.478 Y-21.201 E0.02148
G1 X-21.913 Y-21.166 E0.02348
G1 X-21.422 Y-21.032 E0.02111
G1 X-20.952 Y-20.801 E0.02172
G1 X-20.51 Y-20.454 E0.0233
G1 X-20.164 Y-20.047 E0.02215
G1 X-19.897 Y-19.559 E0.02307
G1 X-19.745 Y-19.066 E0.0214
G1 X-19.687 Y-18.523 E0.02265
G1 X-19.749 Y-17.975 E0.02287
G1 X-19.904 Y-17.478 E0.02159
G1 X-20.145 Y-17.04 E0.02073
G1 X-20.539 Y-16.564 E0.02563
G1 X-21 Y-16.232 E0.02356
G1 X-21.502 Y-15.999 E0.02295
G1 F1500 E-1.4
G0 F6000 X-21.415 Y-15.651
G0 X23.419 Y-14.772
G1 F1500 E1.4
G1 F1200 X22.87 Y-14.637 E0.02345
G1 X22.26 Y-14.607 E0.02533
G1 X21.622 Y-14.694 E0.0267
G1 X20.995 Y-14.907 E0.02746
G1 X20.397 Y-15.256 E0.02871
G1 X19.872 Y-15.73 E0.02933
G1 X19.418 Y-16.342 E0.0316
G1 X19.161 Y-16.969 E0.0281
G1 X19.02 Y-17.611 E0.02726
G1 X19.02 Y-18.365 E0.03127
G1 X19.183 Y-19.051 E0.02924
G1 X19.42 Y-19.597 E0.02468
G1 X19.824 Y-20.195 E0.02993
G1 X20.333 Y-20.668 E0.02882
G1 X20.932 Y-21.028 E0.02898
G1 X21.544 Y-21.259 E0.02713
G1 X22.242 Y-21.352 E0.0292
G1 X22.915 Y-21.318 E0.02795
G1 X23.574 Y-21.138 E0.02833
G1 X24.166 Y-20.843 E0.02743
G1 X24.694 Y-20.443 E0.02747
G1 X25.1 Y-19.971 E0.02582
G1 X25.43 Y-19.419 E0.02667
G1 X25.7 Y-18.653 E0.03368
G1 X25.761 Y-17.936 E0.02984
G1 X25.691 Y-17.316 E0.02588
G1 X25.492 Y-16.639 E0.02926
G1 X25.07 Y-15.945 E0.03368
G1 X24.582 Y-15.422 E0.02966
G1 X24.056 Y-15.056 E0.02658
G1 X23.419 Y-14.772 E0.02892
G0 F6000 X23.333 Y-15.112
G1 F1200 X22.86 Y-14.994 E0.02022
G1 X22.26 Y-14.957 E0.02493
G1 X21.678 Y-15.04 E0.02438
G1 X21.12 Y-15.234 E0.0245
G1 X20.506 Y-15.598 E0.0296
G1 X20.008 Y-16.11 E0.02962
G1 X19.69 Y-16.603 E0.02433
G1 X19.496 Y-17.072 E0.02105
G1 X19.368 Y-17.685 E0.02597
G1 X19.369 Y-18.308 E0.02584
G1 X19.493 Y-18.889 E0.02464
G1 X19.76 Y-19.489 E0.02724
G1 X20.104 Y-19.973 E0.02463
G1 X20.569 Y-20.402 E0.02624
G1 X21.084 Y-20.713 E0.02495
G1 X21.634 Y-20.913 E0.02427
G1 X22.256 Y-21.003 E0.02606
G1 X22.888 Y-20.964 E0.02626
G1 X23.45 Y-20.811 E0.02416
G1 X23.986 Y-20.549 E0.02474
G1 X24.478 Y-20.16 E0.02601
G1 X24.893 Y-19.673 E0.02653
G1 X25.191 Y-19.091 E0.02712
G1 X25.363 Y-18.48 E0.02632
G1 X25.407 Y-17.98 E0.02082
G1 X25.347 Y-17.376 E0.02517
G1 X25.195 Y-16.872 E0.02183
G1 X24.904 Y-16.315 E0.02606
G1 X24.453 Y-15.76 E0.02966
G1 X23.902 Y-15.37 E0.028
G1 X23.333 Y-15.112 E0.02591
G0 F6000 X23.348 Y-15.488
G1 F1200 X22.799 Y-15.338 E0.0236
G1 X22.26 Y-15.307 E0.02239
G1 X21.735 Y-15.385 E0.02201
G1 X21.244 Y-15.561 E0.02163
G1 X20.724 Y-15.876 E0.02521
G1 X20.296 Y-16.309 E0.02525
G1 X20.012 Y-16.739 E0.02137
G1 X19.83 Y-17.176 E0.01963
G1 X19.717 Y-17.718 E0.02296
G1 X19.719 Y-18.245 E0.02186
G1 X19.839 Y-18.807 E0.02383
G1 X20.044 Y-19.279 E0.02134
G1 X20.337 Y-19.708 E0.02154
G1 X20.772 Y-20.117 E0.02476
G1 X21.236 Y-20.397 E0.02247
G1 X21.719 Y-20.574 E0.02133
G1 X22.27 Y-20.653 E0.02308
G1 X22.835 Y-20.618 E0.02348
G1 X23.326 Y-20.484 E0.02111
G1 X23.795 Y-20.25 E0.02174
G1 X24.236 Y-19.908 E0.02314
G1 X24.563 Y-19.522 E0.02098
G1 X24.816 Y-19.082 E0.02105
G1 X25.011 Y-18.501 E0.02542
G1 X25.055 Y-17.924 E0.024
G1 X25.002 Y-17.437 E0.02032
G1 X24.818 Y-16.879 E0.02437
G1 X24.539 Y-16.401 E0.02295
G1 X24.163 Y-15.983 E0.02332
G1 X23.748 Y-15.684 E0.02121
G1 X23.348 Y-15.488 E0.01847
G1 F1500 E-1.4
G0 F6000 X23.504 Y-15.165
G0 X9.712 Y-9.813
G0 X8.795 Y-9.2
G0 X8.182 Y-8.282
G0 X1.724 Y24.067
G0 X1.251 Y25.035
G0 X-0.027 Y26.465
G1 F1500 E1.4
G1 F1200 X-.728 Y26.635 E0.02991
G1 X-1.531 Y26.652 E0.03331
G1 X-2.276 Y26.464 E0.03186
G1 X-2.699 Y26.279 E0.01915
G1 X-3.247 Y25.927 E0.02701
G1 X-3.748 Y25.437 E0.02906
G1 X-3.909 Y25.226 E0.01101
G1 X-4.245 Y24.624 E0.02859
G1 X-4.439 Y24.032 E0.02584
G1 X-4.521 Y23.376 E0.02742
G1 X-4.491 Y22.848 E0.02193
G1 X-4.321 Y22.089 E0.03226
G1 X-3.949 Y21.41 E0.03211
G1 X-3.487 Y20.856 E0.02992
G1 X-2.946 Y20.434 E0.02845
G1 X-2.463 Y20.177 E0.02269
G1 X-1.808 Y19.971 E0.02848
G1 X-1.12 Y19.91 E0.02864
G1 X-.412 Y19.988 E0.02954
G1 X0.217 Y20.198 E0.0275
G1 X0.697 Y20.467 E0.02282
G1 X1.223 Y20.89 E0.02799
G1 X1.406 Y21.087 E0.01115
G1 X1.773 Y21.613 E0.0266
G1 X2.056 Y22.249 E0.02887
G1 X2.196 Y22.894 E0.02737
G1 X2.221 Y23.408 E0.02134
G1 X2.132 Y24.06 E0.02729
G1 X1.923 Y24.673 E0.02686
G1 X1.578 Y25.268 E0.02852
G1 X1.412 Y25.477 E0.01107
G1 X0.917 Y25.949 E0.02836
G1 X0.452 Y26.258 E0.02315
G1 X-0.027 Y26.465 E0.02164
G0 F6000 X-.323 Y26.193
G1 F1200 X-.852 Y26.299 E0.02237
G1 X-1.497 Y26.299 E0.02675
G1 X-2.139 Y26.142 E0.02741
G1 X-2.559 Y25.958 E0.01902
G1 X-3.047 Y25.639 E0.02418
G1 X-3.561 Y25.13 E0.03
G1 X-3.916 Y24.505 E0.02981
G1 X-4.094 Y23.972 E0.0233
G1 X-4.171 Y23.376 E0.02492
G1 X-4.142 Y22.869 E0.02106
G1 X-3.99 Y22.215 E0.02785
G1 X-3.671 Y21.623 E0.02789
G1 X-3.262 Y21.125 E0.02673
G1 X-2.778 Y20.741 E0.02562
G1 X-2.329 Y20.5 E0.02113
G1 X-1.734 Y20.32 E0.02578
G1 X-1.166 Y20.265 E0.02367
G1 X-.526 Y20.326 E0.02666
G1 X0.076 Y20.518 E0.0262
G1 X0.522 Y20.77 E0.02124
G1 X0.995 Y21.156 E0.02532
G1 X1.374 Y21.628 E0.0251
G1 X1.699 Y22.253 E0.02921
G1 X1.846 Y22.913 E0.02804
G1 X1.871 Y23.408 E0.02055
G1 X1.787 Y24 E0.0248
G1 X1.595 Y24.55 E0.02416
G1 X1.236 Y25.161 E0.02939
G1 X0.718 Y25.661 E0.02986
G1 X0.29 Y25.948 E0.02137
G1 X-.323 Y26.193 E0.02738
G0 F6000 X-.395 Y25.85
G1 F1200 X-.887 Y25.951 E0.02083
G1 X-1.454 Y25.949 E0.02351
G1 X-2.007 Y25.818 E0.02357
G1 X-2.419 Y25.638 E0.01865
G1 X-2.848 Y25.352 E0.02138
G1 X-3.282 Y24.913 E0.0256
G1 X-3.586 Y24.387 E0.02519
G1 X-3.75 Y23.911 E0.02088
G1 X-3.821 Y23.343 E0.02374
G1 X-3.793 Y22.891 E0.01878
G1 X-3.659 Y22.34 E0.02352
G1 X-3.393 Y21.836 E0.02363
G1 X-3.038 Y21.393 E0.02354
G1 X-2.694 Y21.105 E0.01861
G1 X-2.245 Y20.847 E0.02148
G1 X-1.668 Y20.664 E0.0251
G1 X-1.121 Y20.615 E0.02278
G1 X-.596 Y20.669 E0.02189
G1 X-0.065 Y20.839 E0.02312
G1 X0.427 Y21.129 E0.02368
G1 X0.845 Y21.505 E0.02332
G1 X1.144 Y21.921 E0.02125
G1 X1.377 Y22.422 E0.02291
G1 X1.497 Y22.931 E0.02169
G1 X1.521 Y23.408 E0.01981
G1 X1.442 Y23.939 E0.02226
G1 X1.268 Y24.426 E0.02145
G1 X0.957 Y24.943 E0.02502
G1 X0.519 Y25.373 E0.02545
G1 X0.128 Y25.638 E0.01959
G1 X-.395 Y25.85 E0.0234
G1 F1500 E-1.4
G0 F6000 X-.324 Y26.206
G0 X-9.423 Y34.882
G1 F1500 E1.4
G1 F1144.4 X-9.818 Y35.039 E0.01848
G1 F1102.4 X-30 Y35.039 E0.9111
G1 F1153.8 X-30.714 Y34.796 E0.03253
G1 F1200 X-31.115 Y34.308 E0.02619
G1 X-31.225 Y33.954 E0.01537
G1 X-31.225 Y-9.2 E1.78965
G1 X-31.131 Y-9.672 E0.01996
G1 X-30.888 Y-10.045 E0.01846
G1 X-30.577 Y-10.282 E0.01622
G1 X-30.269 Y-10.396 E0.01362
G1 X-30 Y-10.425 E0.01122
G1 X-11.927 Y-10.423 E0.74951
G1 X-11.388 Y-10.366 E0.02248
G1 X-10.764 Y-10.183 E0.02697
G1 X-10.19 Y-9.875 E0.02701
G1 X-9.697 Y-9.458 E0.02678
G1 X-9.321 Y-9 E0.02457
G1 X-9.017 Y-8.438 E0.0265
G1 X-8.836 Y-7.835 E0.02611
G1 X-8.776 Y-7.253 E0.02426
G1 X-8.775 Y33.8 E1.70252
G1 X-8.823 Y34.144 E0.0144
G1 X-9.02 Y34.535 E0.01816
G1 X-9.423 Y34.882 E0.02205
G0 F6000 X-9.588 Y34.573
G1 F1200 X-9.887 Y34.675 E0.0131
G1 X-30 Y34.675 E0.83411
G1 X-30.51 Y34.511 E0.02222
G1 X-30.797 Y34.163 E0.01871
G1 X-30.875 Y33.909 E0.01102
G1 X-30.875 Y-9.2 E1.78778
G1 X-30.808 Y-9.537 E0.01425
G1 X-30.634 Y-9.804 E0.01322
G1 X-30.412 Y-9.973 E0.01157
G1 X-30.136 Y-10.075 E0.0122
G1 X-11.949 Y-10.074 E0.75424
G1 X-11.423 Y-10.021 E0.02192
G1 X-10.855 Y-9.835 E0.02479
G1 X-10.437 Y-9.611 E0.01967
G1 X-9.97 Y-9.237 E0.02481
G1 X-9.607 Y-8.805 E0.0234
G1 X-9.344 Y-8.302 E0.02354
G1 X-9.178 Y-7.764 E0.02335
G1 X-9.125 Y-7.237 E0.02197
G1 X-9.125 Y33.8 E1.70185
G1 X-9.159 Y34.046 E0.0103
G1 X-9.3 Y34.325 E0.01296
G1 X-9.588 Y34.573 E0.01576
G0 F6000 X-9.752 Y34.264
G1 F1200 X-9.933 Y34.325 E0.00792
G1 X-30 Y34.325 E0.8322
G1 X-30.306 Y34.227 E0.01333
G1 X-30.478 Y34.018 E0.01123
G1 X-30.525 Y33.869 E0.00648
G1 X-30.525 Y-9.2 E1.78612
G1 X-30.485 Y-9.403 E0.00858
G1 X-30.381 Y-9.563 E0.00791
G1 X-30.084 Y-9.725 E0.01403
G1 X-11.951 Y-9.723 E0.752
G1 X-11.513 Y-9.677 E0.01826
G1 X-11.006 Y-9.519 E0.02202
G1 X-10.617 Y-9.311 E0.01829
G1 X-10.227 Y-8.998 E0.02074
G1 X-9.916 Y-8.628 E0.02004
G1 X-9.658 Y-8.144 E0.02275
G1 X-9.521 Y-7.694 E0.01951
G1 X-9.475 Y-7.221 E0.01971
G1 X-9.475 Y33.909 E1.70571
G1 X-9.58 Y34.115 E0.00959
G1 X-9.752 Y34.264 E0.00944
G1 F1500 E-1.4
G0 F6000 X-9.752 Y34.685
G0 X31.11 Y34.863
G1 F1500 E1.4
G1 F1144.4 X30.683 Y35.039 E0.02008
G1 F1102.4 X8.792 Y35.039 E0.98826
G1 F1153.8 X8.215 Y34.882 E0.02579
G1 F1200 X7.812 Y34.535 E0.02205
G1 X7.615 Y34.144 E0.01816
G1 X7.567 Y33.8 E0.0144
G1 X7.568 Y-7.253 E1.70252
G1 X7.632 Y-7.835 E0.02428
G1 X7.813 Y-8.438 E0.02611
