;FLAVOR:RepRap
;TIME:6011
;Filament used: 8.57178m, 0m
;Layer height: 0.3
;MINX:-38.2
;MINY:-41.4
;MINZ:0.3
;MAXX:38.199
;MAXY:41
;MAXZ:21.9
;TARGET_MACHINE.NAME:IDEX420
;Generated with Cura_SteamEngine 5.10.2
T0
M190 S60
M104 S205
M109 S205
G90 ; switch to absolute coordinate mode
G1 F18000 Y-160 Z15 ; move fast to the coordinates
G1 F18000 X0 Z0.3 ; move fast to the coordinates
G92 E0 ; set the extruder to 0
G1 F300 X60 E24 ; purge the hotend
G1 F600 X40 ; swipe the nozzle
G1 F600 Z3 ; perform Z hop
M82 ;absolute extrusion mode
M141 S0
M83 ;relative extrusion mode
G1 F1500 E-1.4
;LAYER_COUNT:73
;LAYER:0
M106 S51 P6
G0 F6000 X-38.2 Y-29.584 Z0.3
;TYPE:SKIRT
G1 F1500 E1.4
G1 F2400 X-38.183 Y-30.635 E0.09649
G1 X-38.104 Y-31.628 E0.09144
G1 X-37.938 Y-32.559 E0.08681
G1 X-37.694 Y-33.486 E0.088
G1 X-37.482 Y-34.11 E0.0605
G1 X-37.131 Y-34.961 E0.0845
G1 X-36.75 Y-35.687 E0.07527
G1 X-36.463 Y-36.168 E0.05142
G1 X-35.99 Y-36.861 E0.07702
G1 X-35.44 Y-37.544 E0.0805
G1 X-34.967 Y-38.054 E0.06385
G1 X-34.312 Y-38.676 E0.08292
G1 X-33.366 Y-39.409 E0.10986
G1 X-32.482 Y-39.964 E0.09582
G1 X-31.358 Y-40.514 E0.11487
G1 X-30.364 Y-40.871 E0.09695
G1 X-29.447 Y-41.117 E0.08716
G1 X-28.814 Y-41.24 E0.05919
G1 X-27.992 Y-41.353 E0.07617
G1 X-26.924 Y-41.394 E0.09811
G1 X26.355 Y-41.4 E4.8909
G1 X27.434 Y-41.383 E0.09906
G1 X28.425 Y-41.304 E0.09126
G1 X29.568 Y-41.1 E0.10658
G1 X30.763 Y-40.746 E0.11441
G1 X31.741 Y-40.335 E0.09738
G1 X32.636 Y-39.876 E0.09233
G1 X33.799 Y-39.095 E0.1286
G1 X34.697 Y-38.331 E0.10823
G1 X35.467 Y-37.522 E0.10253
G1 X36.1 Y-36.721 E0.09372
G1 X36.801 Y-35.615 E0.1202
G1 X37.315 Y-34.555 E0.10814
G1 X37.671 Y-33.564 E0.09666
G1 X37.92 Y-32.631 E0.08865
G1 X38.01 Y-32.116 E0.04799
G1 X38.037 Y-32.031 E0.00819
G1 X38.146 Y-31.244 E0.07293
G1 X38.194 Y-30.124 E0.10291
G1 X38.199 Y35.63 E6.03608
G1 X38.189 Y36.365 E0.06748
G1 X38.102 Y37.2 E0.07707
G1 X37.866 Y38.005 E0.07701
G1 X37.592 Y38.591 E0.05938
G1 X37.206 Y39.158 E0.06297
G1 X36.829 Y39.602 E0.05347
G1 X36.345 Y40.021 E0.05877
G1 X35.775 Y40.382 E0.06194
G1 X35.182 Y40.679 E0.06088
G1 X34.55 Y40.878 E0.06082
G1 X33.698 Y40.979 E0.07876
G1 X32.599 Y41 E0.1009
G1 X-32.943 Y40.999 E6.01662
G1 X-33.709 Y40.986 E0.07033
G1 X-34.285 Y40.933 E0.0531
G1 X-34.918 Y40.775 E0.05989
G1 X-35.491 Y40.536 E0.05699
G1 X-36.367 Y40.01 E0.0938
G1 X-36.863 Y39.566 E0.06111
G1 X-37.356 Y38.99 E0.0696
G1 X-37.866 Y38.065 E0.09696
G1 X-38.094 Y37.276 E0.07539
G1 X-38.176 Y36.518 E0.06999
G1 X-38.2 Y35.354 E0.10688
G1 X-38.2 Y-29.584 E5.96118
G0 F6000 X-37.4 Y-29.572
G1 F2400 X-37.385 Y-30.575 E0.09208
G1 X-37.316 Y-31.49 E0.08423
G1 X-37.164 Y-32.355 E0.08062
G1 X-36.92 Y-33.282 E0.088
G1 X-36.725 Y-33.851 E0.05522
G1 X-36.422 Y-34.59 E0.07332
G1 X-36.063 Y-35.277 E0.07116
G1 X-35.776 Y-35.758 E0.05142
G1 X-35.367 Y-36.359 E0.06673
G1 X-34.817 Y-37.042 E0.0805
G1 X-34.414 Y-37.476 E0.05437
G1 X-33.82 Y-38.045 E0.07551
G1 X-32.941 Y-38.731 E0.10236
G1 X-32.057 Y-39.286 E0.09582
G1 X-31.085 Y-39.762 E0.09935
G1 X-30.155 Y-40.099 E0.0908
G1 X-29.293 Y-40.332 E0.08197
G1 X-28.705 Y-40.447 E0.055
G1 X-27.883 Y-40.56 E0.07617
G1 X-26.924 Y-40.594 E0.08809
G1 X26.343 Y-40.6 E4.8898
G1 X27.374 Y-40.585 E0.09465
G1 X28.288 Y-40.516 E0.08414
G1 X29.344 Y-40.332 E0.0984
G1 X30.453 Y-40.008 E0.10606
G1 X31.431 Y-39.597 E0.09738
G1 X32.269 Y-39.165 E0.08655
G1 X33.283 Y-38.484 E0.11213
G1 X34.119 Y-37.778 E0.10045
G1 X34.839 Y-37.026 E0.09557
G1 X35.472 Y-36.225 E0.09372
G1 X36.083 Y-35.263 E0.10462
G1 X36.563 Y-34.283 E0.10017
G1 X36.899 Y-33.355 E0.0906
G1 X37.132 Y-32.493 E0.08197
G1 X37.233 Y-31.915 E0.05386
G1 X37.245 Y-31.917 E0.00112
G1 X37.347 Y-31.209 E0.06566
G1 X37.394 Y-30.124 E0.09969
G1 X37.399 Y35.619 E6.03507
G1 X37.389 Y36.354 E0.06748
G1 X37.314 Y37.042 E0.06353
G1 X37.115 Y37.721 E0.06495
G1 X36.894 Y38.193 E0.04784
G1 X36.596 Y38.64 E0.04932
G1 X36.259 Y39.037 E0.0478
G1 X35.865 Y39.378 E0.04783
G1 X35.347 Y39.706 E0.05628
G1 X34.88 Y39.936 E0.04779
G1 X34.383 Y40.092 E0.04782
G1 X33.682 Y40.179 E0.06484
G1 X32.599 Y40.2 E0.09944
G1 X-32.932 Y40.199 E6.01561
G1 X-33.635 Y40.189 E0.06454
G1 X-34.154 Y40.141 E0.04785
G1 X-34.667 Y40.013 E0.04854
G1 X-35.129 Y39.82 E0.04596
G1 X-35.888 Y39.365 E0.08124
G1 X-36.255 Y39.046 E0.04464
G1 X-36.694 Y38.533 E0.06198
G1 X-37.123 Y37.755 E0.08156
G1 X-37.306 Y37.123 E0.0604
G1 X-37.376 Y36.502 E0.05737
G1 X-37.4 Y35.338 E0.10688
G1 X-37.4 Y-29.572 E5.95861
G1 F1500 E-1.4
;MESH:Makita+Battery+Cover+18V+3AMP.stl
G0 F6000 X-33.052 Y-29.572
G0 X-31.928 Y-9.2
;TYPE:WALL-INNER
G1 F1500 E1.4
G1 F1049 X-31.928 Y1.611 E1.06438
G1 F1044.1 X-31.928 Y12.422 E1.06934
G1 F1040.5 X-31.928 Y23.233 E1.07306
G1 F1035.7 X-31.928 Y34.044 E1.07802
G1 F943.4 X-31.837 Y34.637 E0.06568
G0 F6000 X-30 Y35.228
G1 F663.7 X-10 Y35.228 E3.11195
G1 F657.9 X-9.752 Y35.218 E0.03896
G1 F1500 E-1.4
G0 F6000 X-8.345 Y35.002
G0 X0.296 Y27.851
G1 F1500 E1.4
G1 F1200 X-.486 Y28.014 E0.06875
G1 X-1.416 Y28.049 E0.08009
G1 X-1.951 Y27.989 E0.04633
G1 X-2.828 Y27.75 E0.07823
G1 X-3.24 Y27.574 E0.03856
G1 X-3.905 Y27.203 E0.06553
G1 X-4.633 Y26.567 E0.08319
G1 X-5.23 Y25.788 E0.08446
G1 X-5.562 Y25.099 E0.06582
G1 X-5.818 Y24.274 E0.07434
G1 X-5.928 Y23.514 E0.06609
G1 X-5.888 Y22.764 E0.06464
G1 X-5.772 Y22.048 E0.06242
G1 X-5.435 Y21.155 E0.08214
G1 X-4.926 Y20.348 E0.08211
G1 X-4.399 Y19.798 E0.06555
G1 X-4.055 Y19.506 E0.03883
G1 X-3.447 Y19.089 E0.06345
G1 X-2.785 Y18.808 E0.06189
G1 X-1.98 Y18.574 E0.07215
G1 X-1.108 Y18.509 E0.07525
G1 X-.152 Y18.593 E0.08259
G1 X0.787 Y18.919 E0.08554
G1 X1.398 Y19.254 E0.05997
G1 X1.996 Y19.682 E0.06329
G1 X2.657 Y20.388 E0.08323
G1 X3.039 Y21.01 E0.06282
G1 X3.23 Y21.406 E0.03784
G1 X3.483 Y22.093 E0.06301
G1 X3.593 Y22.819 E0.06319
G1 X3.621 Y23.408 E0.05075
G1 X3.507 Y24.302 E0.07756
G1 X3.24 Y25.146 E0.07618
G1 X2.894 Y25.847 E0.06728
G1 X2.404 Y26.465 E0.06787
G1 X1.726 Y27.089 E0.0793
G1 X1.099 Y27.502 E0.06461
G1 X0.296 Y27.851 E0.07535
G0 F6000 X0.062 Y27.134
G1 F1200 X-.695 Y27.291 E0.06653
G1 X-1.409 Y27.299 E0.06145
G1 X-1.792 Y27.257 E0.03316
G1 X-2.533 Y27.061 E0.06596
G1 X-3.29 Y26.692 E0.07248
G1 X-3.915 Y26.204 E0.06824
G1 X-4.454 Y25.574 E0.07135
G1 X-4.856 Y24.845 E0.07164
G1 X-5.079 Y24.144 E0.06331
G1 X-5.176 Y23.476 E0.05809
G1 X-5.14 Y22.811 E0.05731
G1 X-4.972 Y22.04 E0.06791
G1 X-4.838 Y21.685 E0.03266
G1 X-4.458 Y21.007 E0.06689
G1 X-3.914 Y20.37 E0.07209
G1 X-3.253 Y19.861 E0.0718
G1 X-2.559 Y19.523 E0.06643
G1 X-1.866 Y19.319 E0.06217
G1 X-1.123 Y19.261 E0.06414
G1 X-.31 Y19.332 E0.07023
G1 X0.484 Y19.605 E0.07226
G1 X1.023 Y19.904 E0.05305
G1 X1.65 Y20.404 E0.06902
G1 X1.912 Y20.683 E0.03294
G1 X2.364 Y21.337 E0.06842
G1 X2.686 Y22.088 E0.07032
G1 X2.845 Y22.859 E0.06775
G1 X2.871 Y23.408 E0.0473
G1 X2.768 Y24.172 E0.06635
G1 X2.536 Y24.887 E0.06469
G1 X2.121 Y25.622 E0.07264
G1 X1.87 Y25.938 E0.03473
G1 X1.297 Y26.474 E0.06752
G1 X0.751 Y26.838 E0.05647
G1 X0.062 Y27.134 E0.06454
G0 F6000 X-0.071 Y26.375
G1 F1200 X-.745 Y26.537 E0.05966
G1 X-1.524 Y26.551 E0.06705
G1 X-2.238 Y26.371 E0.06337
G1 X-2.857 Y26.079 E0.0589
G1 X-3.369 Y25.691 E0.05529
G1 X-3.815 Y25.182 E0.05824
G1 X-4.151 Y24.59 E0.05858
G1 X-4.341 Y24.015 E0.05212
G1 X-4.421 Y23.376 E0.05542
G1 X-4.391 Y22.857 E0.04474
G1 X-4.221 Y22.119 E0.06518
G1 X-3.866 Y21.466 E0.06397
G1 X-3.429 Y20.942 E0.05872
G1 X-3.084 Y20.65 E0.0389
G1 X-2.449 Y20.273 E0.06355
G1 X-1.778 Y20.071 E0.06031
G1 X-1.166 Y20.015 E0.05289
G1 X-.476 Y20.069 E0.05956
G1 X0.18 Y20.291 E0.0596
G1 X0.647 Y20.553 E0.04608
G1 X1.158 Y20.97 E0.05676
G1 X1.572 Y21.474 E0.05613
G1 X1.935 Y22.163 E0.06702
G1 X2.096 Y22.899 E0.06484
G1 X2.121 Y23.408 E0.04386
G1 X2.029 Y24.043 E0.05522
G1 X1.832 Y24.628 E0.05312
G1 X1.426 Y25.326 E0.06949
G1 X0.868 Y25.859 E0.06641
G1 X0.403 Y26.173 E0.04829
G1 X-0.071 Y26.375 E0.04434
G1 F1500 E-1.4
G0 F6000 X0.148 Y26.894
G0 X7.982 Y34.613
G0 X8.792 Y35.228
G1 F1500 E1.4
G1 F663.7 X30.392 Y35.228 E3.36091
G1 F1500 E-1.4
G0 F6000 X31.313 Y-10.013
G0 X23.162 Y-13.081
G1 F1500 E1.4
G1 F837.2 X22.26 Y-13.049 E0.11133
G1 F900.9 X21.431 Y-13.118 E0.09536
G1 F1070.2 X20.891 Y-13.448 E0.06107
G1 F1200 X20.5 Y-13.595 E0.03595
G1 X19.816 Y-13.937 E0.06581
G1 X19.203 Y-14.424 E0.06738
G1 X18.887 Y-14.735 E0.03816
G1 X18.331 Y-15.463 E0.07883
G1 X18.081 Y-15.916 E0.04453
G1 X17.825 Y-16.55 E0.05884
G1 X17.612 Y-17.486 E0.08261
G1 X17.623 Y-18.532 E0.09002
G1 X17.831 Y-19.452 E0.08117
G1 X18.213 Y-20.325 E0.08201
G1 X18.747 Y-21.087 E0.08008
G1 X19.43 Y-21.75 E0.08192
G1 X20.24 Y-22.256 E0.08219
G1 X21.178 Y-22.617 E0.0865
G1 X22.21 Y-22.77 E0.08979
G1 X23.17 Y-22.687 E0.08293
G1 X24.066 Y-22.47 E0.07934
G1 X24.904 Y-22.037 E0.08118
G1 X25.629 Y-21.497 E0.0778
G1 X26.173 Y-20.874 E0.07118
G1 X26.583 Y-20.273 E0.06261
G1 X26.957 Y-19.39 E0.08253
G1 X27.105 Y-18.648 E0.06511
G1 X27.164 Y-17.893 E0.06517
G1 X27.075 Y-17.082 E0.07021
G1 X26.862 Y-16.339 E0.06652
G1 X26.553 Y-15.632 E0.0664
G1 X26.123 Y-15.026 E0.06395
G1 X25.823 Y-14.682 E0.03928
G1 X25.287 Y-14.179 E0.06326
G1 F1179.6 X24.528 Y-13.709 E0.07816
G1 F1140.7 X23.771 Y-13.39 E0.07437
G1 F954.4 X23.162 Y-13.081 E0.0739
G0 F6000 X23.58 Y-14.142
G1 F1200 X22.959 Y-13.99 E0.05502
G1 X22.26 Y-13.957 E0.06022
G1 X21.517 Y-14.052 E0.06446
G1 X20.765 Y-14.297 E0.06807
G1 X20.046 Y-14.706 E0.07119
G1 X19.73 Y-14.957 E0.03473
G1 X19.185 Y-15.543 E0.06887
G1 X18.771 Y-16.211 E0.06763
G1 X18.541 Y-16.773 E0.05226
G1 X18.363 Y-17.568 E0.07011
G1 X18.371 Y-18.417 E0.07307
G1 X18.544 Y-19.213 E0.0701
G1 X18.882 Y-19.985 E0.07253
G1 X19.34 Y-20.628 E0.06794
G1 X19.93 Y-21.18 E0.06953
G1 X20.643 Y-21.623 E0.07224
G1 X21.393 Y-21.883 E0.06831
G1 X22.222 Y-22.016 E0.07226
G1 X23.049 Y-21.947 E0.07142
G1 X23.807 Y-21.759 E0.06721
G1 X24.507 Y-21.401 E0.06766
G1 X25.131 Y-20.931 E0.06723
G1 X25.598 Y-20.392 E0.06138
G1 X26.004 Y-19.727 E0.06705
G1 X26.284 Y-18.949 E0.07116
G1 X26.359 Y-18.576 E0.03274
G1 X26.412 Y-17.916 E0.05698
G1 X26.336 Y-17.212 E0.06094
G1 X26.148 Y-16.565 E0.05798
G1 X25.775 Y-15.825 E0.07132
G1 X25.257 Y-15.175 E0.07153
G1 X24.658 Y-14.667 E0.06759
G1 X24.33 Y-14.464 E0.0332
G1 X23.58 Y-14.142 E0.07024
G0 F6000 X23.517 Y-14.9
G1 F1200 X22.861 Y-14.737 E0.05817
G1 X22.26 Y-14.707 E0.05179
G1 X21.638 Y-14.793 E0.05404
G1 X21.03 Y-14.999 E0.05525
G1 X20.343 Y-15.401 E0.0685
G1 X19.804 Y-15.967 E0.06726
G1 X19.461 Y-16.506 E0.05498
G1 X19.257 Y-16.997 E0.04576
G1 X19.12 Y-17.622 E0.05506
G1 X19.12 Y-18.336 E0.06145
G1 X19.255 Y-18.972 E0.05595
G1 X19.548 Y-19.622 E0.06136
G1 X19.901 Y-20.125 E0.05288
G1 X20.391 Y-20.586 E0.0579
G1 X20.967 Y-20.934 E0.05792
G1 X21.572 Y-21.162 E0.05564
G1 X22.287 Y-21.258 E0.06209
G1 X22.939 Y-21.205 E0.0563
G1 X23.534 Y-21.048 E0.05296
G1 X24.111 Y-20.764 E0.05535
G1 X24.628 Y-20.372 E0.05584
G1 X25.023 Y-19.911 E0.05225
G1 X25.346 Y-19.366 E0.05452
G1 X25.601 Y-18.634 E0.06671
G1 X25.657 Y-17.98 E0.05649
G1 X25.597 Y-17.341 E0.05523
G1 X25.433 Y-16.792 E0.04931
G1 X25.123 Y-16.195 E0.05789
G1 X24.692 Y-15.668 E0.05859
G1 X24.2 Y-15.261 E0.05495
G1 X23.517 Y-14.9 E0.06648
G1 F1500 E-1.4
G0 F6000 X23.76 Y-14.4
G0 X9.404 Y-10.555
G0 X6.519 Y-8.996
G1 F1500 E1.4
G1 F1200 X6.888 Y-9.675 E0.06651
G1 X7.419 Y-10.358 E0.07445
G1 X7.653 Y-10.59 E0.02836
G1 X8.318 Y-11.105 E0.07239
G1 X9.018 Y-11.483 E0.06846
G1 X9.865 Y-11.739 E0.07615
G1 X10.649 Y-11.822 E0.06785
G1 X20.597 Y-11.826 E0.85613
G1 F965.7 X21.387 Y-12.008 E0.0867
G1 F825.7 X22.26 Y-11.983 E0.10924
G1 F830.3 X23.287 Y-12.001 E0.12776
G1 F945.4 X23.964 Y-11.851 E0.07575
G1 F1159.8 X24.668 Y-11.825 E0.06273
G1 F1200 X30.5 Y-11.825 E0.50191
G1 X31.231 Y-11.722 E0.06353
G1 X31.231 Y-30.13 E1.5842
G1 X31.202 Y-30.645 E0.04439
G1 X31.133 Y-31.083 E0.03816
G1 X30.862 Y-31.917 E0.07547
G1 X30.413 Y-32.694 E0.07723
G1 X29.821 Y-33.346 E0.07579
G1 X29.487 Y-33.617 E0.03702
G1 X28.716 Y-34.063 E0.07665
G1 X27.882 Y-34.335 E0.0755
G1 X27.445 Y-34.401 E0.03803
G1 X26.919 Y-34.431 E0.04534
G1 X-26.919 Y-34.431 E4.63333
G1 X-27.445 Y-34.402 E0.04534
G1 X-27.882 Y-34.335 E0.03805
G1 X-28.716 Y-34.063 E0.0755
G1 X-29.487 Y-33.617 E0.07665
G1 X-29.821 Y-33.346 E0.03702
G1 X-30.412 Y-32.694 E0.07573
G1 X-30.862 Y-31.917 E0.07727
G1 X-31.133 Y-31.082 E0.07555
G1 X-31.202 Y-30.646 E0.03799
G1 X-31.231 Y-30.119 E0.04542
G1 X-31.231 Y-11.519 E1.60073
G1 X-30.577 Y-11.762 E0.06004
G1 X-30 Y-11.825 E0.04995
G1 X-11.924 Y-11.825 E1.55563
G1 X-11.09 Y-11.745 E0.0721
G1 X-10.223 Y-11.48 E0.07802
G1 X-9.53 Y-11.11 E0.06761
G1 X-8.74 Y-10.499 E0.08595
G1 X-8.151 Y-9.786 E0.07959
G1 X-7.716 Y-8.973 E0.07935
G1 X-7.445 Y-8.094 E0.07916
G1 X-7.377 Y-7.322 E0.0667
G1 X-7.375 Y33.8 E3.53898
G1 X-7.407 Y34.031 E0.02007
G1 X6.199 Y34.031 E1.17094
G1 X6.167 Y33.8 E0.02007
G1 X6.169 Y-7.322 E3.53898
G1 X6.243 Y-8.103 E0.06751
G1 X6.519 Y-8.996 E0.08044
G1 F1500 E-1.4
G0 F6000 X6.917 Y33.8
G1 F1500 E1.4
G1 F1200 X6.918 Y-7.287 E3.53597
G1 X6.994 Y-7.96 E0.05829
G1 X7.204 Y-8.681 E0.06463
G1 X7.571 Y-9.365 E0.0668
G1 X8.041 Y-9.935 E0.06358
G1 X8.628 Y-10.421 E0.06559
G1 X9.307 Y-10.787 E0.06638
G1 X9.927 Y-10.974 E0.05573
G1 X10.689 Y-11.073 E0.06613
G1 X30.5 Y-11.075 E1.70495
G1 X31.026 Y-11.001 E0.04571
G1 X31.626 Y-10.701 E0.05773
G1 X31.981 Y-10.287 E0.04693
G1 X31.981 Y-30.151 E1.70951
G1 X31.949 Y-30.724 E0.04939
G1 X31.867 Y-31.24 E0.04496
G1 X31.73 Y-31.747 E0.0452
G1 X31.548 Y-32.223 E0.04386
G1 X31.314 Y-32.681 E0.04426
G1 X31.02 Y-33.136 E0.04662
G1 X30.706 Y-33.521 E0.04276
G1 X30.323 Y-33.904 E0.04661
G1 X29.928 Y-34.225 E0.0438
G1 X29.487 Y-34.51 E0.04519
G1 X29.022 Y-34.749 E0.04499
G1 X28.538 Y-34.934 E0.04459
G1 X28.036 Y-35.07 E0.04476
G1 X27.522 Y-35.148 E0.04474
G1 X26.94 Y-35.181 E0.05017
G1 X-26.94 Y-35.181 E4.63695
G1 X-27.522 Y-35.148 E0.05017
G1 X-28.036 Y-35.07 E0.04474
G1 X-28.538 Y-34.935 E0.04474
G1 X-29.022 Y-34.749 E0.04462
G1 X-29.487 Y-34.511 E0.04496
G1 X-29.928 Y-34.225 E0.04524
G1 X-30.323 Y-33.904 E0.0438
G1 X-30.706 Y-33.521 E0.04661
G1 X-31.02 Y-33.136 E0.04276
G1 X-31.313 Y-32.681 E0.04657
G1 X-31.548 Y-32.223 E0.0443
G1 X-31.73 Y-31.747 E0.04386
G1 X-31.867 Y-31.239 E0.04528
G1 X-31.948 Y-30.725 E0.04478
G1 X-31.981 Y-30.14 E0.05043
G1 F1196.8 X-31.98 Y-9.972 E1.7403
G1 F1119.4 X-31.928 Y-9.2 E0.07138
G1 X-31.732 Y-9.922 E0.06902
G1 F1196.8 X-31.358 Y-10.494 E0.05897
G1 F1200 X-30.883 Y-10.855 E0.05134
G1 X-30.412 Y-11.03 E0.04324
G1 X-30 Y-11.075 E0.03567
G1 X-11.944 Y-11.075 E1.55391
G1 X-11.213 Y-10.999 E0.06325
G1 X-10.522 Y-10.791 E0.0621
G1 X-9.835 Y-10.423 E0.06707
G1 X-9.245 Y-9.936 E0.06584
G1 X-8.775 Y-9.365 E0.06365
G1 X-8.408 Y-8.681 E0.0668
G1 X-8.198 Y-7.96 E0.06463
G1 X-8.126 Y-7.287 E0.05825
G1 X-8.125 Y33.8 E3.53597
G1 X-8.199 Y34.326 E0.04571
G1 X-8.427 Y34.781 E0.0438
G1 X7.219 Y34.781 E1.3465
G1 X6.991 Y34.326 E0.0438
G1 X6.917 Y33.8 E0.04571
G1 F1500 E-1.4
G0 F6000 X7.171 Y-7.278
G0 X7.775 Y-9.218
G0 X9.404 Y-10.555
G0 X32.113 Y-10.813
G0 X32.185 Y34.52
G0 X31.573 Y34.52
G1 F1500 E1.4
G1 F965.7 X31.068 Y34.789 E0.06119
G1 F971.9 X30.722 Y35.067 E0.04716
G1 F741.4 X30.392 Y35.228 E0.05115
G1 X30.748 Y35.371 E0.05344
G1 F903.6 X31.203 Y35.528 E0.05501
G1 F898.2 X32.022 Y35.364 E0.09604
G1 F830.3 X32.564 Y35.364 E0.06742
G1 X32.564 Y34.822 E0.06742
G1 F889.3 X32.636 Y34.092 E0.08518
G1 F959.5 X32.638 Y19.661 E1.55325
G1 F963.6 X32.64 Y5.23 E1.54663
G1 F967.7 X32.642 Y-9.201 E1.54001
G1 F1072.7 X32.731 Y-10.039 E0.08113
G1 F1200 X32.731 Y-30.172 E1.73266
G1 X32.695 Y-30.804 E0.05448
